X: 402
T: Tom Jones
S: MS of Walter Rainstorp 1747++ 
S: https://brbl-dl.library.yale.edu/vufind/Record/3444369
F: https://brbl-dl.library.yale.edu/pdfgen/exportPDF.php?bibid=2057949&solrid=3444369
%R: jig
Z: 2019 John Chambers <jc:trillian.mit.edu>
M: 6/8
L: 1/8
K: D
|:\
a3 g3 | fdf ecA | d2f ecA | d2f ecA |\
dcd ede | geg ^gfg | a2d c2B | A3- A3 :|
|:\
D2F E2G | F2A AGF | G2B A2=c | B3 A3 |\
GFG AGA | BAB cBc | d2G F2E | D3- D2 :|
%%begintext align
%% 1.t Cu right hands across with 2.d Cu. .|
%% left Hands back again :|
%% coss over figure in .|.
%% right and left :|:
%%endtext
